assets/icons/traton/document_wrong.svg

<svg xmlns="http://www.w3.org/2000/svg" width="32" height="32" viewBox="0 0 32 32" fill="none">
<path d="M26.0264 11.5859V30H18.021V28H24.0241V13H15.0137V4H8.00557V14.0068H6.00326V2H16.4294L26.0264 11.5859ZM15.961 17.415L11.4099 21.9609L15.961 26.5068L14.5453 27.9209L9.99321 23.375L5.44304 27.9209L4.02637 26.5068L8.57752 21.9609L4.02637 17.415L5.44304 16.001L9.99321 20.5459L14.5453 16.001L15.961 17.415ZM17.016 11H22.6084L17.016 5.41406V11Z" fill="#001D21" />
</svg>

<svg xmlns="http://www.w3.org/2000/svg" fill="none" viewBox="0 0 32 32"><path fill="#001d21" d="M26 11.6V30h-8v-2h6V13h-9V4H8v10H6V2h10.4zm-10 5.8L11.4 22l4.6 4.5-1.5 1.4-4.5-4.5-4.6 4.5L4 26.5 8.6 22 4 17.4 5.4 16l4.6 4.5 4.5-4.5zm1-6.4h5.6L17 5.4z"/></svg>
